X:2
T:Level 1 - Sky Battle
C:AI Composer
M:4/4
L:1/16
Q:1/4=140
K:Am
V:1 name="Lead"
|: "Am"A2c2e2c2 A2c2e2c2 | "F"F2A2c2A2 F2A2c2A2 | 
   "G"G2B2d2B2 G2B2d2B2 | "Am"A2c2e2c2 A4 A4 :|
|: "Dm"d2f2a2f2 d2f2a2f2 | "Em"e2g2b2g2 e2g2b2g2 |
   "F"f2a2c'2a2 "G"g2b2d'2b2 | "Am"a2e2c2A2 A4 A4 :|
|: "Am"e'2c'2a2e2 c2A2E2C2 | "G"d'2b2g2d2 B2G2D2B,2 |
   "F"c'2a2f2c2 A2F2C2A,2 | "E"b2g2e2B2 G2E2B,2G,2 |
   "Am"a2e2c2a2 e'2c'2a2e2 | "F"f2c2a2f'2 "G"g2d2b2g'2 | 
   "Am"a'2e'2c'2a2 e2c2A2E2 | "Am"A4 A4 A8 :|

